icon-themes/breeze_svg/cmd/32/basicstepout.svg

<svg viewBox="0 0 32 32" xmlns="http://www.w3.org/2000/svg"><path d="m4 4v24h24v-19h-1v18h-22v-18h16v-5zm11.044922 6c-1.77683 0-2.521485.706366-2.521484 2.509766v2.441406c0 1.1138-.034195 2.404297-1.015626 2.404297h-.507812v1.289062h.507812c.981481 0 1.015626 1.290497 1.015626 2.404297v2.441406c0 1.8034.744654 2.509766 2.521484 2.509766v-1.183594c-1.18455 0-1.201172-.478337-1.201172-2.210937v-2.015625c0-.8309-.204705-2.067378-1.203125-2.580078.99842-.5127 1.203125-1.751032 1.203125-2.582032v-2.033203c0-1.7326.016592-2.210937 1.201172-2.210937zm1.894531 0v1.183594c1.18456 0 1.216797.478337 1.216797 2.210937v2.033203c0 .831.204705 2.069332 1.203125 2.582032-.99842.5127-1.203125 1.749178-1.203125 2.580078v2.015625c0 1.7326-.03219 2.210937-1.216797 2.210937v1.183594c1.77684 0 2.537109-.706366 2.537109-2.509766v-2.441406c0-1.1138.06864-2.404297 1.033204-2.404297h.490234v-1.289062h-.490234c-.96457 0-1.033204-1.290497-1.033204-2.404297v-2.441406c0-1.8034-.760269-2.509766-2.537109-2.509766z" fill="#4d4d4d"/><path d="m23 4v5l5-2.5z" fill="#f47750"/></svg>

<svg xmlns="http://www.w3.org/2000/svg" viewBox="0 0 32 32">
 <path 
     style="fill:#4d4d4d" 
     d="M 4 4 L 4 28 L 28 28 L 28 9 L 27 9 L 27 27 L 5 27 L 5 9 L 21 9 L 21 4 L 4 4 z M 15.044922 10 C 13.268092 10 12.523437 10.706366 12.523438 12.509766 L 12.523438 14.951172 C 12.523438 16.064972 12.489243 17.355469 11.507812 17.355469 L 11 17.355469 L 11 18.644531 L 11.507812 18.644531 C 12.489293 18.644531 12.523438 19.935028 12.523438 21.048828 L 12.523438 23.490234 C 12.523438 25.293634 13.268092 26 15.044922 26 L 15.044922 24.816406 C 13.860372 24.816406 13.84375 24.338069 13.84375 22.605469 L 13.84375 20.589844 C 13.84375 19.758944 13.639045 18.522466 12.640625 18.009766 C 13.639045 17.497066 13.84375 16.258734 13.84375 15.427734 L 13.84375 13.394531 C 13.84375 11.661931 13.860342 11.183594 15.044922 11.183594 L 15.044922 10 z M 16.939453 10 L 16.939453 11.183594 C 18.124013 11.183594 18.15625 11.661931 18.15625 13.394531 L 18.15625 15.427734 C 18.15625 16.258734 18.360955 17.497066 19.359375 18.009766 C 18.360955 18.522466 18.15625 19.758944 18.15625 20.589844 L 18.15625 22.605469 C 18.15625 24.338069 18.12406 24.816406 16.939453 24.816406 L 16.939453 26 C 18.716293 26 19.476562 25.293634 19.476562 23.490234 L 19.476562 21.048828 C 19.476562 19.935028 19.545202 18.644531 20.509766 18.644531 L 21 18.644531 L 21 17.355469 L 20.509766 17.355469 C 19.545196 17.355469 19.476562 16.064972 19.476562 14.951172 L 19.476562 12.509766 C 19.476562 10.706366 18.716293 10 16.939453 10 z "
     />
 <path 
     style="fill:#f47750" 
     d="M 23 4 L 23 9 L 28 6.5 L 23 4 z "
     />
</svg>
